public/images/hashed/b42d6a3e37b6490b903a1fea31a2511f.svg

<svg xmlns="http://www.w3.org/2000/svg" width="80" height="80"><defs><linearGradient id="a" x1="0%" x2="100%" y1="100%" y2="0%"><stop offset="0%" stop-color="#4D27A8"/><stop offset="100%" stop-color="#A166FF"/></linearGradient></defs><g fill="none" fill-rule="evenodd"><path fill="url(#a)" d="M0 0h80v80H0z"/><path fill="#FFF" d="M55.122 52.123c0-1.654-1.346-3-3-3s-3 1.346-3 3 1.346 3 3 3 3-1.346 3-3Zm2 0c0 2.757-2.243 5-5 5s-5-2.243-5-5 2.243-5 5-5 5 2.243 5 5Zm-26.73-14.431c0-1.654-1.346-3-3-3-1.655 0-3 1.346-3 3s1.345 3 3 3c1.654 0 3-1.346 3-3Zm2 0c0 2.757-2.244 5-5 5-2.757 0-5-2.243-5-5s2.243-5 5-5c2.756 0 5 2.243 5 5Zm7.338-15.685c0 1.654 1.346 3 3 3 1.655 0 3-1.346 3-3 0-1.655-1.345-3-3-3-1.654 0-3 1.345-3 3Zm-2 0c0-2.757 2.244-5 5-5 2.757 0 5 2.243 5 5s-2.243 5-5 5c-2.756 0-5-2.243-5-5ZM66 40c0-9.273-4.972-17.852-12.988-22.491-1.437.29-2.827.687-4.561 1.314l-.68-1.881c.905-.326 1.715-.59 2.495-.816A25.948 25.948 0 0 0 40 14c-1.689 0-3.351.175-4.975.492a31.993 31.993 0 0 1 3.232 2.142l-1.209 1.593c-1.428-1.082-2.908-1.999-4.851-3.017-9.819 3.088-16.891 11.748-18.014 21.918a34.928 34.928 0 0 1 6.231-.698l.049 1.999c-2.3.057-4.276.301-6.436.776-.009.265-.027.533-.027.795a25.939 25.939 0 0 0 11.327 21.447c-1.253-3.731-1.877-7.257-1.877-10.701 0-1.964.338-3.577.695-5.284.083-.395.167-.797.249-1.214l1.963.387c-.084.424-.17.835-.254 1.238-.35 1.672-.653 3.116-.653 4.873 0 3.908.858 7.949 2.604 12.337A25.67 25.67 0 0 0 40 66c2.756 0 5.446-.44 8.012-1.286a33.503 33.503 0 0 0 2.378-6.015l1.921.557a35.683 35.683 0 0 1-1.602 4.421 25.395 25.395 0 0 0 4.574-2.672 36.221 36.221 0 0 0-1.124-2.506l1.789-.895c.348.696.667 1.408.972 2.124C62.705 54.775 66 47.66 66 40Zm2 0c0 8.727-3.966 16.799-10.879 22.149a27.46 27.46 0 0 1-5.532 3.323c-.833.378-1.681.728-2.553 1.022A27.516 27.516 0 0 1 40 68c-4.6 0-9.168-1.146-13.212-3.314A27.951 27.951 0 0 1 12 40c0-.686.018-1.208.059-1.691.681-11.684 8.697-21.797 19.942-25.143A27.668 27.668 0 0 1 40 12a27.87 27.87 0 0 1 13.684 3.579A28.026 28.026 0 0 1 68 40ZM37.314 25.463 36 23.956c-2.242 1.956-3.986 4.033-6.023 7.17l1.678 1.089c1.928-2.971 3.568-4.927 5.659-6.752Zm-3.039 12.964-.65 1.891c4.593 1.577 8.6 4.093 12.609 7.918l1.381-1.447c-4.226-4.031-8.465-6.688-13.34-8.362Zm13.371-11.759c3.752 5.722 5.865 12.003 6.279 18.67l-1.996.124c-.393-6.316-2.396-12.27-5.954-17.697l1.671-1.097Z"/></g></svg>

<?xml version="1.0" encoding="UTF-8"?>
<svg width="80px" height="80px" viewBox="0 0 80 80" version="1.1" xmlns="http://www.w3.org/2000/svg" xmlns:xlink="http://www.w3.org/1999/xlink">
    <!-- Generator: Sketch 64 (93537) - https://sketch.com -->
    <title>Icon-Architecture/64/Arch_Amazon-CloudFront_64</title>
    <desc>Created with Sketch.</desc>
    <defs>
        <linearGradient x1="0%" y1="100%" x2="100%" y2="0%" id="linearGradient-1">
            <stop stop-color="#4D27A8" offset="0%"></stop>
            <stop stop-color="#A166FF" offset="100%"></stop>
        </linearGradient>
    </defs>
    <g id="Icon-Architecture/64/Arch_Amazon-CloudFront_64" stroke="none" stroke-width="1" fill="none" fill-rule="evenodd">
        <g id="Icon-Architecture-BG/64/Networking-Content-Delivery" fill="url(#linearGradient-1)">
            <rect id="Rectangle" x="0" y="0" width="80" height="80"></rect>
        </g>
        <path d="M55.122,52.123 C55.122,50.469 53.776,49.123 52.122,49.123 C50.468,49.123 49.122,50.469 49.122,52.123 C49.122,53.777 50.468,55.123 52.122,55.123 C53.776,55.123 55.122,53.777 55.122,52.123 L55.122,52.123 Z M57.122,52.123 C57.122,54.88 54.879,57.123 52.122,57.123 C49.365,57.123 47.122,54.88 47.122,52.123 C47.122,49.366 49.365,47.123 52.122,47.123 C54.879,47.123 57.122,49.366 57.122,52.123 L57.122,52.123 Z M30.392,37.692 C30.392,36.038 29.046,34.692 27.392,34.692 C25.737,34.692 24.392,36.038 24.392,37.692 C24.392,39.346 25.737,40.692 27.392,40.692 C29.046,40.692 30.392,39.346 30.392,37.692 L30.392,37.692 Z M32.392,37.692 C32.392,40.449 30.148,42.692 27.392,42.692 C24.635,42.692 22.392,40.449 22.392,37.692 C22.392,34.935 24.635,32.692 27.392,32.692 C30.148,32.692 32.392,34.935 32.392,37.692 L32.392,37.692 Z M39.73,22.007 C39.73,23.661 41.076,25.007 42.73,25.007 C44.385,25.007 45.73,23.661 45.73,22.007 C45.73,20.352 44.385,19.007 42.73,19.007 C41.076,19.007 39.73,20.352 39.73,22.007 L39.73,22.007 Z M37.73,22.007 C37.73,19.25 39.974,17.007 42.73,17.007 C45.487,17.007 47.73,19.25 47.73,22.007 C47.73,24.764 45.487,27.007 42.73,27.007 C39.974,27.007 37.73,24.764 37.73,22.007 L37.73,22.007 Z M66,40 C66,30.727 61.028,22.148 53.012,17.509 C51.575,17.799 50.185,18.196 48.451,18.823 L47.771,16.942 C48.676,16.616 49.486,16.352 50.266,16.126 C47.046,14.737 43.548,14 40,14 C38.311,14 36.649,14.175 35.025,14.492 C36.201,15.18 37.244,15.866 38.257,16.634 L37.048,18.227 C35.62,17.145 34.14,16.228 32.197,15.21 C22.378,18.298 15.306,26.958 14.183,37.128 C16.242,36.711 18.219,36.484 20.414,36.43 L20.463,38.429 C18.163,38.486 16.187,38.73 14.027,39.205 C14.018,39.47 14,39.738 14,40 C14,48.658 18.283,56.636 25.327,61.447 C24.074,57.716 23.45,54.19 23.45,50.746 C23.45,48.782 23.788,47.169 24.145,45.462 C24.228,45.067 24.312,44.665 24.394,44.248 L26.357,44.635 C26.273,45.059 26.187,45.47 26.103,45.873 C25.753,47.545 25.45,48.989 25.45,50.746 C25.45,54.654 26.308,58.695 28.054,63.083 C31.773,65.014 35.789,66 40,66 C42.756,66 45.446,65.56 48.012,64.714 C49.019,62.727 49.766,60.852 50.39,58.699 L52.311,59.256 C51.855,60.826 51.332,62.253 50.709,63.677 C52.323,62.951 53.85,62.053 55.283,61.005 C54.938,60.159 54.568,59.318 54.159,58.499 L55.948,57.604 C56.296,58.3 56.615,59.012 56.92,59.728 C62.705,54.775 66,47.66 66,40 L66,40 Z M68,40 C68,48.727 64.034,56.799 57.121,62.149 C55.409,63.479 53.552,64.583 51.589,65.472 C50.756,65.85 49.908,66.2 49.036,66.494 C46.156,67.493 43.113,68 40,68 C35.4,68 30.832,66.854 26.788,64.686 C17.667,59.806 12,50.347 12,40 C12,39.314 12.018,38.792 12.059,38.309 C12.74,26.625 20.756,16.512 32.001,13.166 C34.562,12.393 37.255,12 40,12 C44.808,12 49.539,13.238 53.684,15.579 C62.513,20.525 68,29.884 68,40 L68,40 Z M37.314,25.463 L36,23.956 C33.758,25.912 32.014,27.989 29.977,31.126 L31.655,32.215 C33.583,29.244 35.223,27.288 37.314,25.463 L37.314,25.463 Z M34.275,38.427 L33.625,40.318 C38.218,41.895 42.225,44.411 46.234,48.236 L47.615,46.789 C43.389,42.758 39.15,40.101 34.275,38.427 L34.275,38.427 Z M47.646,26.668 C51.398,32.39 53.511,38.671 53.925,45.338 L51.929,45.462 C51.536,39.146 49.533,33.192 45.975,27.765 L47.646,26.668 Z" id="Amazon-CloudFront_Icon_64_Squid" fill="#FFFFFF"></path>
    </g>
</svg>
